X: 1
T: Little Brother, Big Sisters
M: 9/8
L: 1/8
R: slip jig
K: Emin
|: Bed BAc Bef | g2e f2d edB | Bed BAc BGE | A2G F2G ABc |
Bed BAc Bef | gge fed e2B | A3 A2G F2G | FED DEF FGA  :|
|: BBG B2G c2e | dBG F2G ABc | BBG B2G cBA | G2E EFG ABc |
BBG B2G c2e | ddB e2f gfe | f3 fdB e2B | AGF DEF FGA :|
